X:1
T:Baby's First Flute
C:David James
D:"The Lone Man's Path," David James
H:"MY flute makes your flute sound like..."
More tunes, stuff, on tiompanalley.com website
L:1/8
M:4/4
R:reel
K:D
afge fd3 | gbaf ge3 | afge fd3 |1 fage fd3 :|2 fage fedc ||
B3c BAFA | dAFA DFAd | BF3 BAFA :|1 dcde dAFA :|2 dAFA defg ||
